X: 39332
T: Tam Lin
R: reel
M: 4/4
K: Edorian
EF|:GEED EG (3FED|B,=CEC GCEC|D2 (3FED ADFD|GEED ~E3F|
G2FG EG (3FED|B,=CEC GCEC|DEED ADFA|1 GBAF GE~E2:|2 GBAF GA (3Bcd||
|:eB~B2 GBFB|EBFB GABc|dABA ~d3e|fd (3fga gfed|
eB~B2 GBFB|EBFB GFEB,|=CB,CE EDEF|GBAF GA (3Bcd:|
|:ge~e2 BAGF|EFGA Bcde|fd~d2 fdad|fd (3fga bagf|
ge~e2 g2ba|gfed BGDB,|=CB,CE EDEF|1 GBAF GA (3Bcd:|2 GBAF GEEF||

